X:1
T:Title
%%score ( 1 2 ) { 3 | 4 }
L:1/8
Q:1/4=100
M:4/4
K:Ab
V:1 treble nm="Grand Piano, Soprano"
V:2 treble 
V:3 bass nm="Choir Pad, Bass"
V:4 bass 
V:1
 [CE]>[CE] [CE]>[DF] [EA]2 [EA]2 | [Ec]4 [CA]4 | [DA]2 [DA]2 [DA]>[DB] [DA]>[DF] | [CE]6 z2 | %4
w: By~Z.~T.~Greene,~1913 * * * * *||||
 [CE]>[CE] [CE]>[DF] [EA]2 [EA]2 | [Ec]4 [CA]4 | [Ac]>[Ac] [Ac]>[FB] [EA]2 [EB]2 | [EA]6 z2 | %8
w: ||||
 [EA]>[EA] [Ec]>[Ec] [Ae]2 [Af]2 | e2- [Ee-][Ge] [Ae]2 z2 | [Ec]>[Ec] [Ec]>[EB] [EA]2 [Ec]2 | %11
w: |||
 B6 z2 | [CE]>[CE] [CE]>[DF] [EA]2 [EA]2 | [Ec]4 [CA]4 | [Ac]>[Ac] [Ac]>[FB] [EA]2 [EB]2 | [EA]8 |] %16
w: |||||
V:2
 x8 | x8 | x8 | x8 | x8 | x8 | x8 | x8 | x8 | A2 z2 z4 | x8 | E2 =DD E2 z2 | x8 | x8 | x8 | x8 |] %16
V:3
 A,>A, A,>A, C2 C2 | A,4 E,4 | F,2 F,2 F,>F, F,>A, | A,6 z2 | A,>A, A,>A, C2 C2 | A,4 E,4 | %6
 E>E E>D C2 D2 | C6 z2 | C>C A,>A, C2 D2 | C2 A,D C2 z2 | A,>A, A,>G, A,2 A,2 | G,2 F,F, G,2 z2 | %12
 A,>A, A,>A, C2 C2 | A,4 E,4 | E>E E>D C2 D2 | C8 |] %16
V:4
 A,,>A,, A,,>A,, A,,2 A,,2 | A,,4 A,,4 | D,2 D,2 D,>D, D,>D, | A,,6 z2 | %4
 A,,>A,, A,,>A,, A,,2 A,,2 | A,,4 A,,4 | A,>A, A,>D, E,2 E,2 | A,,6 z2 | A,>A, z2 A,2 A,2 | %9
 A,2 C,E, A,2 z2 | A,,>A,, A,,>B,, C,2 A,,2 | E,2 B,,B,, E,2 z2 | A,,>A,, A,,>A,, A,,2 A,,2 | %13
 A,,4 A,,4 | A,>A, A,>D, E,2 E,2 | A,,8 |] %16

